www/images/logo/title.svg

<?xml version="1.0" encoding="UTF-8" standalone="no"?>
<svg
   width="300"
   height="71.784"
   viewBox="0 0 79.375 18.993"
   version="1.1"
   id="svg7"
   xmlns:xlink="http://www.w3.org/1999/xlink"
   xmlns="http://www.w3.org/2000/svg"
   xmlns:svg="http://www.w3.org/2000/svg">
  <defs
     id="defs2">
    <linearGradient
       xlink:href="#a"
       id="b"
       x1=".152"
       x2=".969"
       y1="-.045"
       y2="-.049"
       gradientTransform="matrix(-5.21456 25.531 -25.531 -5.21456 762.3 221.95)"
       gradientUnits="userSpaceOnUse" />
    <linearGradient
       id="a"
       x1=".152"
       x2=".969"
       y1="-.045"
       y2="-.049"
       gradientTransform="matrix(-5.21456 25.531 -25.531 -5.21456 762.3 221.95)"
       gradientUnits="userSpaceOnUse">
      <stop
         offset="0"
         stop-color="#ec706a"
         id="stop1" />
      <stop
         offset="1"
         stop-color="#ecd980"
         id="stop2" />
    </linearGradient>
  </defs>
  <path
     id="path32"
     style="fill:#51a9cf;fill-opacity:1"
     d="M 76.696905 4.2860773 C 75.760905 4.2860773 74.906182 4.5252025 74.132183 5.0038687 C 73.363517 5.4772016 72.75569 6.1470652 72.309024 7.0130643 C 71.857024 7.8677302 71.631024 8.8301007 71.631024 9.9007663 C 71.631024 10.551432 71.749377 11.151121 71.986044 11.69912 C 72.22271 12.242453 72.599183 12.680446 73.115183 13.013779 C 73.609849 13.347112 74.249645 13.514011 75.034977 13.514011 L 75.036011 13.515045 C 75.401344 13.515045 75.774515 13.471486 76.155848 13.384819 C 76.543181 13.293486 76.914668 13.167728 77.270001 13.007061 C 77.63 12.840395 77.957928 12.643578 78.253928 12.416912 C 78.554594 12.191579 78.804426 11.944165 79.003759 11.674832 L 78.278216 10.319866 C 78.132883 10.513199 77.91502 10.709648 77.625021 10.908982 C 77.334354 11.107648 77.019551 11.274547 76.680885 11.409213 C 76.342218 11.54388 76.024997 11.610753 75.728997 11.610753 C 75.341664 11.610753 75.061765 11.52782 74.889765 11.361154 C 74.717766 11.194487 74.615472 10.938419 74.582805 10.593753 L 74.582805 10.367925 C 75.255471 10.195925 75.882142 9.9917041 76.462808 9.7550376 C 77.043475 9.5130379 77.551793 9.2307205 77.987792 8.9080542 C 78.423125 8.5860545 78.761759 8.2149346 79.003759 7.794935 C 79.251092 7.3702687 79.374799 6.8890835 79.374799 6.351084 C 79.374799 5.9477511 79.27544 5.5926906 79.076106 5.2860243 C 78.882773 4.9746912 78.586815 4.7302129 78.188815 4.5522131 C 77.796149 4.3748799 77.298904 4.2860773 76.696905 4.2860773 z M 76.066964 5.8188125 C 76.28763 5.8188125 76.440888 5.8834174 76.526888 6.0120839 C 76.618888 6.1360838 76.664865 6.3406717 76.664865 6.6260048 C 76.664865 6.9160045 76.602828 7.1983219 76.478828 7.4729882 C 76.355495 7.7416546 76.189113 7.986133 75.979113 8.2067994 C 75.774447 8.4267992 75.548446 8.6044044 75.301113 8.7390709 C 75.054447 8.8737374 74.804098 8.9485318 74.550765 8.9638652 C 74.561478 8.6893636 74.596925 8.3453745 74.656186 7.9318786 C 74.714853 7.517879 74.857404 7.1312164 75.08407 6.7712167 C 75.25607 6.5018837 75.414314 6.275883 75.55898 6.0932165 C 75.704314 5.9105501 75.873631 5.8188125 76.066964 5.8188125 z " />
  <path
     id="path25"
     style="fill:#51a9cf;fill-opacity:1"
     d="M 15.616943 4.2860773 C 14.680944 4.2860773 13.826221 4.5252025 13.052222 5.0038687 C 12.283556 5.4772016 11.675729 6.1470652 11.229063 7.0130643 C 10.777063 7.8677302 10.551062 8.8301007 10.551062 9.9007663 C 10.551062 10.551432 10.669416 11.151121 10.906082 11.69912 C 11.142749 12.24312 11.519222 12.68148 12.035221 13.014813 C 12.529888 13.348146 13.169684 13.515045 13.955016 13.515045 L 13.95605 13.515045 C 14.321383 13.515045 14.694554 13.471486 15.075887 13.384819 C 15.46322 13.293486 15.834707 13.167728 16.19004 13.007061 C 16.550039 12.840395 16.877967 12.643578 17.173967 12.416912 C 17.474633 12.191579 17.724464 11.944165 17.923798 11.674832 L 17.198255 10.319866 C 17.052922 10.513199 16.834692 10.709648 16.544026 10.908982 C 16.254026 11.107648 15.93959 11.274547 15.600924 11.409213 C 15.262257 11.54388 14.945036 11.610753 14.649036 11.610753 C 14.261703 11.610753 13.981804 11.52782 13.809804 11.361154 C 13.637804 11.194487 13.53551 10.938419 13.502844 10.593753 L 13.502844 10.367925 C 14.17551 10.195925 14.802181 9.9917041 15.382847 9.7550376 C 15.963513 9.5130379 16.471464 9.2307205 16.906797 8.9080542 C 17.342797 8.5860545 17.681798 8.2149346 17.923798 7.794935 C 18.171131 7.3702687 18.294837 6.8890835 18.294837 6.351084 C 18.294837 5.9477511 18.195478 5.5926906 17.996145 5.2860243 C 17.802812 4.9746912 17.506853 4.7302129 17.108854 4.5522131 C 16.716188 4.3748799 16.218943 4.2860773 15.616943 4.2860773 z M 14.987003 5.8188125 C 15.207669 5.8188125 15.360927 5.8834174 15.446927 6.0120839 C 15.538926 6.1360838 15.584904 6.3406717 15.584904 6.6260048 C 15.584904 6.9160045 15.522867 7.1983219 15.398867 7.4729882 C 15.275534 7.7416546 15.109152 7.986133 14.899152 8.2067994 C 14.694486 8.4267992 14.468485 8.6044044 14.221152 8.7390709 C 13.974485 8.8737374 13.724137 8.9488987 13.470804 8.9648987 C 13.481471 8.6902323 13.516892 8.3458782 13.576225 7.9318786 C 13.634891 7.517879 13.777443 7.1312164 14.004109 6.7712167 C 14.176109 6.5018837 14.334353 6.275883 14.479019 6.0932165 C 14.624352 5.9105501 14.79367 5.8188125 14.987003 5.8188125 z " />
  <path
     id="path27"
     style="fill:#51a9cf;fill-opacity:1"
     d="M 24.377202 4.2860773 C 23.441869 4.2860773 22.586629 4.5252025 21.811963 5.0038687 C 21.043297 5.4772016 20.43547 6.1470652 19.988804 7.0130643 C 19.536805 7.8677302 19.310804 8.8301007 19.310804 9.9007663 C 19.310804 10.551432 19.429158 11.151121 19.665824 11.69912 C 19.90249 12.24312 20.278964 12.68148 20.794963 13.014813 C 21.290296 13.348146 21.930092 13.515045 22.714758 13.515045 C 23.080757 13.515045 23.455179 13.471486 23.837179 13.384819 C 24.223845 13.293486 24.594448 13.167728 24.949781 13.007061 C 25.309781 12.840395 25.638225 12.643578 25.934225 12.416912 C 26.235558 12.191579 26.48539 11.944165 26.684056 11.674832 L 25.957996 10.319866 C 25.812663 10.513199 25.594801 10.709648 25.304801 10.908982 C 25.014135 11.107648 24.699848 11.274547 24.361182 11.409213 C 24.022516 11.54388 23.705144 11.610753 23.409811 11.610753 C 23.021812 11.610753 22.742062 11.52782 22.570063 11.361154 C 22.398729 11.194487 22.296435 10.938419 22.263102 10.593753 L 22.263102 10.367925 C 22.935768 10.195925 23.56244 9.9917041 24.143106 9.7550376 C 24.723772 9.5130379 25.23209 9.2307205 25.668089 8.9080542 C 26.103422 8.5860545 26.442423 8.2149346 26.68509 7.794935 C 26.931756 7.3702687 27.055096 6.8890835 27.055096 6.351084 C 27.055096 5.9477511 26.955587 5.5926906 26.75692 5.2860243 C 26.562921 4.9746912 26.267112 4.7302129 25.869112 4.5522131 C 25.477113 4.3748799 24.979868 4.2860773 24.377202 4.2860773 z M 23.747778 5.8188125 C 23.967778 5.8188125 24.121552 5.8834174 24.208218 6.0120839 C 24.299552 6.1360838 24.345162 6.3406717 24.345162 6.6260048 C 24.345162 6.9160045 24.283125 7.1983219 24.159125 7.4729882 C 24.035792 7.7416546 23.868893 7.986133 23.658894 8.2067994 C 23.454894 8.4267992 23.228893 8.6044044 22.980893 8.7390709 C 22.734227 8.8737374 22.484396 8.9488987 22.231062 8.9648987 C 22.242396 8.6902323 22.2773 8.3458782 22.335966 7.9318786 C 22.3953 7.517879 22.537851 7.1312164 22.763851 6.7712167 C 22.935851 6.5018837 23.094461 6.275883 23.239794 6.0932165 C 23.385128 5.9105501 23.554445 5.8188125 23.747778 5.8188125 z " />
  <path
     d="M751.566 230.706c-2.527 12.283 1.949 15.415 1.949 15.415s1.787-7.837 5.132-6.391c2.871 1.237.668 6.515.668 6.515s18.882-18.12 4.517-24.348c0 0-3.15-1.644-6.354-.387-2.345.92-4.718 3.391-5.912 9.196"
     paint-order="stroke"
     style="fill:url(#b);fill-opacity:1;fill-rule:nonzero;stroke:none;stroke-width:.72817;stroke-linecap:butt;stroke-linejoin:miter;stroke-miterlimit:4;stroke-dasharray:none;stroke-dashoffset:0"
     transform="matrix(.20372 0 0 .20372 -95.423 -31.173)"
     id="path2" />
  <path
     fill="#126d95"
     d="m771.784 223.478-6.529-10.073 1.046-3.86 5.948 1.61zM773.124 207.876l-.545 2.01-5.935-1.607.545-2.01z"
     style="stroke-width:.59394"
     transform="matrix(.20372 0 0 .20372 -95.423 -31.173)"
     id="path3" />
  <g
     fill="#51a9cf"
     id="g4">
    <path
       d="M62.74 3.45a.467.467 0 0 0-.446.344.47.47 0 0 0 .332.578l-1.69 6.235-1.21-.328c1.012-3.807.605-6.29.605-6.29A13.105 13.105 0 0 0 63.674 0zM60.87 10.849l-.11.41-1.215-.33.11-.41zM60.69 11.516l-.213.787-2.182 1.1 1.183-2.216z"
       id="path4" />
  </g>
  <path
     fill="#126d95"
     d="m777.66 170.312 4.589-16.945c-.19 4.992.169 14.581 4.286 25.19 0 0-7.065 9.8-13.065 28.138l-5.96-1.614 8.295-30.605a2.308 2.308 0 0 0 1.855-4.164"
     style="stroke-width:.59394"
     transform="matrix(.20372 0 0 .20372 -95.423 -31.173)"
     id="path5" />
  <path
     style="fill:#51a9cf;fill-opacity:1"
     d="M 52.691,13.385 53.917,4.4 h 2.71 l -0.129,1.872 q 0.178,-0.525 0.516,-0.976 0.34,-0.452 0.799,-0.726 0.46,-0.283 0.992,-0.283 0.428,0 0.549,0.097 l -0.5,2.856 Q 58.797,7.143 58.555,7.086 58.313,7.03 58.079,7.03 q -0.347,0 -0.645,0.072 -0.29,0.065 -0.565,0.218 -0.266,0.154 -0.548,0.404 l -0.823,5.662 z"
     id="path31" />
  <path
     style="fill:#51a9cf;fill-opacity:1"
     d="M 40.107,13.385 38.639,1.334 h 2.823 l 0.452,7.711 0.161,1.759 0.532,-1.759 2.033,-5.05 -0.29,-2.661 h 2.726 l 0.468,7.711 0.178,1.759 0.42,-1.759 2.629,-7.711 h 2.872 l -4.68,12.051 H 45.705 L 45.253,9.078 45.108,7.755 44.624,9.078 43.059,13.385 Z"
     id="path30" />
  <path
     style="fill:#51a9cf;fill-opacity:1"
     d="M 28.088,13.385 29.314,4.4 h 2.694 l -0.113,1.63 q 0.549,-0.823 1.29,-1.283 0.75,-0.46 1.63,-0.46 1.065,0 1.622,0.549 0.556,0.548 0.556,1.823 0,0.177 -0.056,0.645 -0.049,0.46 -0.13,1.025 -0.072,0.556 -0.137,1.024 L 36.582,9.95 q -0.057,0.436 -0.137,1 -0.073,0.557 -0.154,1.097 -0.072,0.54 -0.129,0.912 l -0.056,0.427 h -2.807 q 0.12,-0.806 0.217,-1.516 0.105,-0.718 0.186,-1.34 0.08,-0.628 0.145,-1.16 Q 33.944,8.554 34,8.014 34.065,7.465 34.073,7.175 34.089,6.748 33.928,6.578 33.767,6.401 33.428,6.401 33.21,6.401 32.968,6.506 32.734,6.61 32.5,6.812 32.266,7.006 32.048,7.28 31.838,7.554 31.669,7.885 l -0.774,5.501 z"
     id="path29" />
  <path
     style="fill:#51a9cf;fill-opacity:1"
     d="M 0,13.385 1.726,1.334 h 2.71 L 3.662,6.609 7.905,1.334 H 11.1 L 6.324,6.642 q 0.113,0.21 0.274,0.532 0.17,0.315 0.404,0.79 0.242,0.468 0.572,1.138 0.34,0.67 0.8,1.59 0.209,0.427 0.41,0.814 0.202,0.379 0.388,0.718 0.185,0.33 0.355,0.62 l 0.33,0.541 H 6.582 Q 6.55,13.329 6.462,13.151 6.372,12.974 6.235,12.675 6.098,12.369 5.905,11.949 l -0.42,-0.968 -1,-2.307 -1.29,1.356 -0.485,3.355 z"
     id="path6" />
  <path
     style="fill:#51a9cf;fill-opacity:1"
     d="m 67.21,13.547 q -0.854,0 -1.355,-0.444 -0.5,-0.444 -0.5,-1.25 0,-0.073 0.024,-0.347 l 0.057,-0.613 q 0.04,-0.347 0.08,-0.638 L 66.081,6.109 H 65.42 l 0.29,-1.71 h 0.823 l 0.774,-2.162 h 2.114 L 69.114,4.4 h 1.759 l -0.178,1.71 h -1.79 l -0.307,2.227 -0.194,1.387 q -0.072,0.508 -0.104,0.774 l -0.049,0.388 q -0.008,0.12 -0.008,0.226 0,0.242 0.113,0.379 0.113,0.137 0.436,0.137 0.169,0 0.427,-0.089 0.258,-0.097 0.516,-0.242 0.259,-0.153 0.428,-0.315 l 0.436,1.34 q -0.42,0.322 -0.944,0.605 -0.517,0.274 -1.13,0.451 -0.613,0.17 -1.314,0.17 z"
     id="path7" />
</svg>

<svg width="300" height="71.784" viewBox="0 0 79.375 18.993" xmlns:xlink="http://www.w3.org/1999/xlink" xmlns="http://www.w3.org/2000/svg"><defs><linearGradient xlink:href="#a" id="b" x1=".152" x2=".969" y1="-.045" y2="-.049" gradientTransform="rotate(101.544 290.55 422.146) scale(26.05808)" gradientUnits="userSpaceOnUse"/><linearGradient id="a" x1=".152" x2=".969" y1="-.045" y2="-.049" gradientTransform="rotate(101.544 290.55 422.146) scale(26.05808)" gradientUnits="userSpaceOnUse"><stop offset="0" stop-color="#ec706a"/><stop offset="1" stop-color="#ecd980"/></linearGradient></defs><path style="fill:#51a9cf;fill-opacity:1" d="M76.697 4.286c-.936 0-1.79.24-2.565.718-.768.473-1.376 1.143-1.823 2.01-.452.854-.678 1.816-.678 2.887 0 .65.118 1.25.355 1.798.237.543.613.981 1.13 1.315.494.333 1.134.5 1.919.5l.001.001c.365 0 .739-.044 1.12-.13a6.09 6.09 0 0 0 1.114-.378c.36-.167.688-.363.984-.59.3-.225.55-.473.75-.742l-.726-1.355c-.145.193-.363.39-.653.589a4.83 4.83 0 0 1-.944.5 2.583 2.583 0 0 1-.952.202c-.387 0-.667-.083-.84-.25-.171-.167-.274-.423-.306-.767v-.226a14.49 14.49 0 0 0 1.88-.613 7.222 7.222 0 0 0 1.525-.847 3.661 3.661 0 0 0 1.016-1.113c.247-.425.37-.906.37-1.444 0-.403-.099-.758-.298-1.065-.193-.311-.49-.556-.887-.734-.393-.177-.89-.266-1.492-.266zm-.63 1.533c.22 0 .374.064.46.193.092.124.138.329.138.614 0 .29-.062.572-.186.847-.124.269-.29.513-.5.734-.205.22-.43.397-.678.532a1.78 1.78 0 0 1-.75.225c.01-.275.046-.619.105-1.032.059-.414.201-.8.428-1.16.172-.27.33-.496.475-.679.145-.182.315-.274.508-.274zM15.617 4.286c-.936 0-1.79.24-2.565.718-.768.473-1.376 1.143-1.823 2.01-.452.854-.678 1.816-.678 2.887 0 .65.118 1.25.355 1.798.237.544.613.982 1.13 1.316.494.333 1.134.5 1.919.5h.001c.365 0 .739-.044 1.12-.13a6.09 6.09 0 0 0 1.114-.378c.36-.167.688-.363.984-.59.3-.225.55-.473.75-.742l-.726-1.355c-.145.193-.363.39-.654.589-.29.199-.604.366-.943.5a2.583 2.583 0 0 1-.952.202c-.387 0-.667-.083-.84-.25-.171-.167-.273-.423-.306-.767v-.226a14.49 14.49 0 0 0 1.88-.613 7.197 7.197 0 0 0 1.524-.847 3.656 3.656 0 0 0 1.017-1.113c.247-.425.37-.906.37-1.444 0-.403-.099-.758-.298-1.065-.193-.311-.49-.556-.887-.734-.393-.177-.89-.266-1.492-.266zm-.63 1.533c.22 0 .374.064.46.193.092.124.138.329.138.614 0 .29-.062.572-.186.847-.123.269-.29.513-.5.734-.205.22-.43.397-.678.532-.247.135-.497.21-.75.226.01-.275.046-.62.105-1.033.059-.414.201-.8.428-1.16.172-.27.33-.496.475-.679.145-.182.315-.274.508-.274zM24.377 4.286c-.935 0-1.79.24-2.565.718-.769.473-1.377 1.143-1.823 2.01-.452.854-.678 1.816-.678 2.887 0 .65.118 1.25.355 1.798.236.544.613.982 1.129 1.316.495.333 1.135.5 1.92.5.366 0 .74-.044 1.122-.13a6.091 6.091 0 0 0 1.113-.378 5.22 5.22 0 0 0 .984-.59 3.6 3.6 0 0 0 .75-.742l-.726-1.355c-.145.193-.363.39-.653.589-.29.199-.605.366-.944.5a2.583 2.583 0 0 1-.951.202c-.388 0-.668-.083-.84-.25-.171-.167-.274-.423-.307-.767v-.226a14.49 14.49 0 0 0 1.88-.613 7.222 7.222 0 0 0 1.525-.847 3.673 3.673 0 0 0 1.017-1.113c.247-.425.37-.906.37-1.444 0-.403-.1-.758-.298-1.065-.194-.311-.49-.556-.888-.734-.392-.177-.89-.266-1.492-.266zm-.63 1.533c.22 0 .375.064.461.193.092.124.137.329.137.614 0 .29-.062.572-.186.847-.123.269-.29.513-.5.734-.204.22-.43.397-.678.532a1.79 1.79 0 0 1-.75.226c.011-.275.046-.62.105-1.033.06-.414.202-.8.428-1.16.172-.27.33-.496.476-.679.145-.182.314-.274.508-.274z"/><path d="M751.566 230.706c-2.527 12.283 1.949 15.415 1.949 15.415s1.787-7.837 5.132-6.391c2.871 1.237.668 6.515.668 6.515s18.882-18.12 4.517-24.348c0 0-3.15-1.644-6.354-.387-2.345.92-4.718 3.391-5.912 9.196" paint-order="stroke" style="fill:url(#b);fill-opacity:1;fill-rule:nonzero;stroke:none;stroke-width:.72817;stroke-linecap:butt;stroke-linejoin:miter;stroke-miterlimit:4;stroke-dasharray:none;stroke-dashoffset:0" transform="translate(-95.423 -31.173) scale(.20372)"/><path fill="#126d95" d="m771.784 223.478-6.529-10.073 1.046-3.86 5.948 1.61zm1.34-15.602-.545 2.01-5.935-1.607.545-2.01z" style="stroke-width:.59394" transform="translate(-95.423 -31.173) scale(.20372)"/><path d="M62.74 3.45a.467.467 0 0 0-.446.344.47.47 0 0 0 .332.578l-1.69 6.235-1.21-.328c1.012-3.807.605-6.29.605-6.29A13.105 13.105 0 0 0 63.674 0zm-1.87 7.399-.11.41-1.215-.33.11-.41zm-.18.667-.213.787-2.182 1.1 1.183-2.216z" fill="#51a9cf"/><path fill="#126d95" d="m777.66 170.312 4.589-16.945c-.19 4.992.169 14.581 4.286 25.19 0 0-7.065 9.8-13.065 28.138l-5.96-1.614 8.295-30.605a2.308 2.308 0 0 0 1.855-4.164" style="stroke-width:.59394" transform="translate(-95.423 -31.173) scale(.20372)"/><path style="fill:#51a9cf;fill-opacity:1" d="M52.691 13.385 53.917 4.4h2.71l-.129 1.872q.178-.525.516-.976.34-.452.799-.726.46-.283.992-.283.428 0 .549.097l-.5 2.856q-.057-.097-.299-.154-.242-.056-.476-.056-.347 0-.645.072-.29.065-.565.218-.266.154-.548.404l-.823 5.662zM40.107 13.385 38.639 1.334h2.823l.452 7.711.161 1.759.532-1.759 2.033-5.05-.29-2.661h2.726l.468 7.711.178 1.759.42-1.759 2.629-7.711h2.872l-4.68 12.051h-3.258l-.452-4.307-.145-1.323-.484 1.323-1.565 4.307ZM28.088 13.385 29.314 4.4h2.694l-.113 1.63q.549-.823 1.29-1.283.75-.46 1.63-.46 1.065 0 1.622.549.556.548.556 1.823 0 .177-.056.645-.049.46-.13 1.025-.072.556-.137 1.024l-.088.597q-.057.436-.137 1-.073.557-.154 1.097-.072.54-.129.912l-.056.427h-2.807q.12-.806.217-1.516.105-.718.186-1.34.08-.628.145-1.16.097-.816.153-1.356.065-.549.073-.839.016-.427-.145-.597-.161-.177-.5-.177-.218 0-.46.105-.234.104-.468.306-.234.194-.452.468-.21.274-.379.605l-.774 5.501zM0 13.385 1.726 1.334h2.71l-.774 5.275 4.243-5.275H11.1L6.324 6.642q.113.21.274.532.17.315.404.79.242.468.572 1.138.34.67.8 1.59.209.427.41.814.202.379.388.718.185.33.355.62l.33.541H6.582q-.032-.056-.12-.234-.09-.177-.227-.476-.137-.306-.33-.726l-.42-.968-1-2.307-1.29 1.356-.485 3.355zM67.21 13.547q-.854 0-1.355-.444-.5-.444-.5-1.25 0-.073.024-.347l.057-.613q.04-.347.08-.638l.565-4.146h-.661l.29-1.71h.823l.774-2.162h2.114L69.114 4.4h1.759l-.178 1.71h-1.79l-.307 2.227-.194 1.387q-.072.508-.104.774l-.049.388q-.008.12-.008.226 0 .242.113.379t.436.137q.169 0 .427-.089.258-.097.516-.242.259-.153.428-.315l.436 1.34q-.42.322-.944.605-.517.274-1.13.451-.613.17-1.314.17z"/></svg>
